X:1
T:In the Hollow of His Hand
T:Samuel William Beazley
T:In the Hollow of His Hand
T:Public Domain
T:Public Domain
C:Samuel William Beazley
Z:Public Domain
%%score ( 1 2 ) ( 3 4 )
L:1/8
M:4/4
K:Ab
V:1 treble 
V:2 treble 
V:3 bass 
V:4 bass 
V:1
"^Male Chorus or Quartet" [EA][EB] | [Ac]<[Ac] [Ac]>[Ac] [Ad]2 [Ad]>[Ad] | [Ac]2 [EA]4 [Ac]>[Ac] | %3
w: 1.~In the|hol- low of His hand He will|hide me Wh- en|
w: 2.~In the|hol- low of His hand He will|hide me When the|
w: 3.~In the|hol- low of His hand He will|hide me When the|
 [Bd]3 [Ac] [GB]2 [Ge]2 | (A2 d2 c2) [ce]>[Bd] | [Ac]>[Ac] [Ac]>[Ac] [Gc]2 [Gc]2 | %6
w: doubt and sin draw|near, * * Though no|ly friend may walk be- side|
w: storm is on the|deep, * * And I|what- ev- er may be- tide|
w: storms of life sweep|by, * * To the|bor sa- fe He will guide|
 [GB]2 [Af]4 [=Ae]->[Ae] | [A=d]3 [AB] [Ac]2 [Bd]2 | (B2 c2 d2) ||"^Refrain" [cd]2 | %10
w: me, I rest *|se- cure from fear.|||
w: me, His vig- *|il He will keep.|I * *|what-|
w: me, Where~His bless- *|èd is- lands lie.|||
 [ce]3 [Ac] [df]2 [ce]2 | [Ac]2 [GB]4 (cA) | [FA]3 A A2 [Ad]2 | [Ad]2 [Ac]4 [ce]2 | %14
w: ||||
w: e’er be- tide me,|His hand will *|ly guide me, His|ev- er hide|
w: ||||
 [c=e]3 [ce] [cf]2 [c_e]2 | [B=d]2 [Bd]4 [=Bd]>[Bd] | [ce] [ce]3 [Bd]2 [Bd]2 | [Ac]6 |] %18
w: ||||
w: me In the hol-|low of His hand.|||
w: ||||
V:2
 x2 | x8 | x8 | x8 | e6 x2 | x8 | x8 | x8 | e6 || x2 | x8 | x6 G2 | x3 A A2 x2 | x8 | x8 | x8 | %16
w: ||||earth-||||||||||||
w: ||||know||||know|||safe-|love will||||
w: ||||har-||||||||||||
 x8 | x6 |] %18
w: ||
w: ||
w: ||
V:3
 [A,,C,][A,,D,] | [A,,E,]<[A,,E,] [A,,E,]>[A,,E,] [A,,F,]2 [A,,F,]>[A,,F,] | %2
 [A,,E,]2 [A,,C,]4 [A,,E,]>[A,,E,] | E,3 E, E,2 [D,E,]2 | %4
 ([C,E,]2 [B,,G,]2 [A,,A,]2) [A,,A,]>[A,,E,] | [A,,E,]>[A,,E,] [A,,E,]>[A,,E,] [C,=E,]2 [C,E,]2 | %6
 [F,,F,]2 [F,,F,]4 [F,,F,]->[F,,F,] | [B,,F,]3 [B,,=E,] [B,,=D,]2 [B,,A,]2 | (G,2 A,2 B,2) || %9
 [E,G,]2 | [A,,A,]3 [A,,E,] [A,,A,]2 [A,,A,]2 | E,2 _E,4 [=E,G,]2 | %12
 [F,A,]3 [E,_G,] [D,F,]2 [D,F,]2 | [A,,F,]2 [A,,E,]4 A,2 | [G,B,]3 [G,B,] [F,=A,]2 [F,A,]2 | %15
 [B,,A,]2 [B,,A,]4 [_F,A,]>[F,A,] | [E,A,] [E,A,]3 [E,,E,G,]2 [E,,E,G,]2 | [A,,E,]6 |] %18
V:4
 x2 | x8 | x8 | E,3 E, E,2 x2 | x8 | x8 | x8 | x8 | E,6 || x2 | x8 | =E,2 =E,4 x2 | x8 | x6 A,2 | %14
 x8 | x8 | x8 | x6 |] %18

